src/ios-copy-outline.svg

<?xml version="1.0" encoding="utf-8"?>
<!-- Generated by IcoMoon.io -->
<!DOCTYPE svg PUBLIC "-//W3C//DTD SVG 1.1//EN" "http://www.w3.org/Graphics/SVG/1.1/DTD/svg11.dtd">
<svg version="1.1" xmlns="http://www.w3.org/2000/svg" xmlns:xlink="http://www.w3.org/1999/xlink" width="512" height="512" viewBox="0 0 512 512">
<path fill="#000000" d="M304 96h-16v80h80v-16h-64z"></path>
<path fill="#000000" d="M325.3 64h-165.3v48h-48v336h240v-48h48v-261l-74.7-75zM336 432h-208v-304h32v272h176v32zM384 384h-208v-304h142.7l65.3 65.6v238.4z"></path>
</svg>

<?xml version="1.0" encoding="utf-8"?>
<!-- Generator: Adobe Illustrator 16.2.1, SVG Export Plug-In . SVG Version: 6.00 Build 0)  -->
<!DOCTYPE svg PUBLIC "-//W3C//DTD SVG 1.1//EN" "http://www.w3.org/Graphics/SVG/1.1/DTD/svg11.dtd">
<svg version="1.1" id="Layer_1" xmlns="http://www.w3.org/2000/svg" xmlns:xlink="http://www.w3.org/1999/xlink" x="0px" y="0px"
	 width="512px" height="512px" viewBox="0 0 512 512" style="enable-background:new 0 0 512 512;" xml:space="preserve">
<g>
	<polygon points="304,96 288,96 288,176 368,176 368,160 304,160 	"/>
	<path d="M325.3,64H160v48h-48v336h240v-48h48V139L325.3,64z M336,432H128V128h32v272h176V432z M384,384H176V80h142.7l65.3,65.6V384
		z"/>
</g>
</svg>
